svgs/sharp-light/fish-bones.svg

<svg xmlns="http://www.w3.org/2000/svg" viewBox="0 0 576 512"><!--! Font Awesome Pro 6.6.0 by @fontawesome - https://fontawesome.com License - https://fontawesome.com/license (Commercial License) Copyright 2024 Fonticons, Inc. --><path d="M76.2 240l-38-101.5L96 177.1l0-38.5L32 96 0 128 48 256 0 384l32 32 64-42.7 0-38.5L38.1 373.5 76.2 272l67.8 0 0 80 0 16 32 0 0-16 0-80 64 0 0 80 0 16 32 0 0-16 0-80 64 0 0 80 0 16 32 0 0-16 0-80 48 0 0 96 0 32 32 0L576 256 448 112l-32 0 0 32 0 96-48 0 0-80 0-16-32 0 0 16 0 80-64 0 0-80 0-16-32 0 0 16 0 80-64 0 0-80 0-16-32 0 0 16 0 80-67.8 0zM448 351.8l0-79.8 0-32 0-79.8L533.2 256 448 351.8z"/></svg>

<svg xmlns="http://www.w3.org/2000/svg" viewBox="0 0 576 512"><!--! Font Awesome Pro 6.4.2 by @fontawesome - https://fontawesome.com License - https://fontawesome.com/license (Commercial License) Copyright 2023 Fonticons, Inc. --><path d="M76.2 240l-38-101.5L96 177.1V138.7L32 96 0 128 48 256 0 384l32 32 64-42.7V334.9L38.1 373.5 76.2 272H144v80 16h32V352 272h64v80 16h32V352 272h64v80 16h32V352 272h48v96 32h32L576 256 448 112H416v32 96H368V160 144H336v16 80H272V160 144H240v16 80H176V160 144H144v16 80H76.2zM448 351.8V272 240 160.2L533.2 256 448 351.8z"/></svg>
